svg/u1f63f.svg

<svg viewBox="0 0 128 128" xmlns="http://www.w3.org/2000/svg">
  <defs/>
  <path d="M114.11,70.76 C112.31,44.78 94.44,26.3 64,26.3 C33.56,26.3 15.69,44.78 13.89,70.76 C12.84,85.9 18.94,98.77 30.98,106.97 C30.98,106.97 43.19,116.85 64,117.11 C84.81,116.85 97.02,106.97 97.02,106.97 C109.05,98.77 115.16,85.9 114.11,70.76 Z" fill="#FFC022"/>
  <path d="M54.12,45.02 C55.25,45.98 57.54,45.84 58.87,44.3 C60.48,42.43 62.16,36.13 61.11,26.39 C56.44,26.56 52.02,27.23 47.9,28.36 C51.23,33.82 52.03,43.24 54.12,45.02 Z" fill="#FF7043" opacity="0.47"/>
  <path d="M73.88,45.02 C72.75,45.98 70.46,45.84 69.13,44.3 C67.52,42.43 65.84,36.13 66.89,26.39 C71.56,26.56 75.98,27.23 80.1,28.36 C76.77,33.82 75.97,43.24 73.88,45.02 Z" fill="#FF7043" opacity="0.47"/>
  <path d="M55.96,74.54 C55.91,71.68 60.02,70.3 63.91,70.24 C67.8,70.18 71.98,71.44 72.03,74.3 C72.08,77.16 67.17,80.94 64.08,80.94 C61,80.94 56.01,77.4 55.96,74.54 Z"/>
  <path d="M3.199,73.576 Q5.02,72.16 8.28,70.803 Q14.71,68.125 22.073,68.19 Q22.823,68.197 23.195,68.575 Q23.567,68.953 23.56,69.703 Q23.547,71.203 22.047,71.19 Q15.297,71.13 9.433,73.572 Q6.545,74.775 5.041,75.944 Q3.856,76.865 2.936,75.681 Q2.475,75.089 2.541,74.562 Q2.607,74.036 3.199,73.576 Z" fill="#9E9E9E"/>
  <path d="M4.217,88.463 Q5.487,85.704 8.474,82.717 Q14.406,76.785 23.075,75.292 Q24.554,75.037 24.808,76.515 Q24.936,77.254 24.63,77.688 Q24.324,78.121 23.585,78.248 Q15.854,79.58 10.596,84.838 Q7.988,87.446 6.943,89.717 Q6.629,90.398 6.132,90.582 Q5.634,90.766 4.953,90.453 Q3.59,89.825 4.217,88.463 Z" fill="#9E9E9E"/>
  <path d="M13.61,97.838 Q14.48,95.086 16.24,91.812 Q19.819,85.156 24.494,82.282 Q25.133,81.889 25.649,82.012 Q26.165,82.136 26.558,82.774 Q27.343,84.052 26.066,84.838 Q22.078,87.289 18.882,93.233 Q17.255,96.259 16.47,98.742 Q16.018,100.172 14.588,99.72 Q13.158,99.268 13.61,97.838 Z" fill="#9E9E9E"/>
  <path d="M122.959,75.944 Q121.455,74.775 118.567,73.572 Q112.703,71.13 105.953,71.19 Q105.203,71.197 104.825,70.825 Q104.447,70.453 104.44,69.703 Q104.427,68.203 105.927,68.19 Q113.29,68.125 119.72,70.803 Q122.98,72.16 124.801,73.576 Q125.985,74.496 125.064,75.681 Q124.144,76.865 122.959,75.944 Z" fill="#9E9E9E"/>
  <path d="M121.057,89.717 Q120.012,87.446 117.404,84.838 Q112.146,79.58 104.415,78.248 Q102.937,77.994 103.192,76.515 Q103.446,75.037 104.925,75.292 Q113.594,76.785 119.526,82.717 Q122.513,85.704 123.783,88.463 Q124.41,89.825 123.047,90.453 Q121.685,91.08 121.057,89.717 Z" fill="#9E9E9E"/>
  <path d="M111.53,98.742 Q110.745,96.259 109.118,93.233 Q105.922,87.289 101.934,84.838 Q100.657,84.052 101.442,82.774 Q102.228,81.497 103.506,82.282 Q108.181,85.156 111.76,91.812 Q113.52,95.086 114.39,97.838 Q114.842,99.268 113.412,99.72 Q111.982,100.172 111.53,98.742 Z" fill="#9E9E9E"/>
  <path d="M33.78,61.77 C34.11,60.14 35.23,58.12 37.41,57.4 C41.16,56.15 43.94,54.9 45.35,54.22 C45.93,53.94 46.61,54.24 46.8,54.85 C47.16,56.02 47.68,57.98 47.93,60.34 C48.5,65.59 44.87,68.78 40.94,69.02 C36.34,69.3 33.06,65.37 33.78,61.77 Z"/>
  <path d="M94.22,61.77 C93.89,60.14 92.77,58.12 90.59,57.4 C86.84,56.15 84.06,54.9 82.65,54.22 C82.07,53.94 81.39,54.24 81.2,54.85 C80.84,56.02 80.32,57.98 80.07,60.34 C79.5,65.59 83.13,68.78 87.06,69.02 C91.66,69.3 94.94,65.37 94.22,61.77 Z"/>
  <path d="M65.98,83.98 L65.98,79.53 L61.98,79.53 L61.98,83.97 C61.98,86.38 60.69,88.56 58.67,89.88 C54.64,92.51 52.6,94.68 50.72,96.89 C49.54,98.27 50.05,100.4 51.73,101.09 L51.73,101.09 C52.96,101.6 54.38,101.14 55.05,99.98 C56.81,96.93 60.12,92.68 63.99,92.68 C67.75,92.68 70.99,96.71 72.78,99.74 C73.52,100.98 75.1,101.41 76.36,100.72 L76.54,100.62 C78.06,99.78 78.39,97.74 77.21,96.46 C75.36,94.45 72.5,92.07 69.31,89.88 C67.32,88.52 65.98,86.39 65.98,83.98 Z"/>
  <path d="M34.78,73.43 C35.44,72.09 37.31,72.1 37.96,73.44 C40.17,78.03 44.07,86.57 45.41,92.46 C47.42,101.27 43.28,109.57 36.22,109.41 C27.36,109.22 23.96,98.8 27.37,89.7 C29.04,85.27 32.68,77.71 34.78,73.43 Z" fill="#28B3F2"/>
  <path d="M40.15,107.38 C31.29,107.97 27.18,98.19 29.96,89.08 C31.31,84.65 34.43,77.01 36.23,72.69 C36.27,72.59 36.33,72.52 36.38,72.43 C35.75,72.43 35.11,72.76 34.78,73.43 C32.68,77.71 29.04,85.27 27.38,89.7 C23.97,98.8 27.37,109.22 36.23,109.41 C38.62,109.46 40.67,108.53 42.26,106.95 C41.59,107.17 40.9,107.33 40.15,107.38 Z" fill="#0277BD"/>
  <path d="M39.27,85.81 C41.31,85.78 42.78,90.25 43.04,95.37 C43.35,101.45 38.26,102.91 36.99,97.22 C36.06,93.07 37.18,85.84 39.27,85.81 Z" fill="#81D4FA"/>
  <path d="M19.91,58.62 C5.73,40.06 4.92,22.48 6.11,16.64 C6.62,14.15 8.82,12.71 11.28,12.59 C16.87,12.33 32.18,16.65 46.13,29.07 L19.91,58.62 Z" fill="#FFC022"/>
  <path d="M15.22,23.77 C14.57,23.57 13.92,24.07 13.93,24.74 C13.99,29.83 14.57,36.11 20.78,44.77 C21.73,46.1 22.86,47.86 25.55,44.9 C27.04,43.26 31.47,38.54 31.47,38.54 C32.66,37.47 35.08,35.6 33.33,33.96 C33.25,33.89 26.71,27.3 15.22,23.77 Z" fill="#FFD1D1"/>
  <path d="M108.09,58.62 C122.27,40.06 123.08,22.47 121.89,16.64 C121.38,14.15 119.18,12.71 116.72,12.59 C111.13,12.33 95.82,16.65 81.87,29.07 L108.09,58.62 Z" fill="#FFC022"/>
  <path d="M112.78,23.77 C113.43,23.57 114.08,24.07 114.07,24.74 C114.01,29.83 113.43,36.11 107.22,44.77 C106.27,46.1 105.14,47.86 102.45,44.9 C100.96,43.26 96.53,38.54 96.53,38.54 C95.34,37.47 92.92,35.6 94.67,33.96 C94.75,33.89 101.29,27.3 112.78,23.77 Z" fill="#FFD1D1"/>
</svg>

<svg viewBox="0 0 128 128" xmlns="http://www.w3.org/2000/svg">
  <g>
    <g>
      <path d="M114.11,70.76C112.31,44.78,94.44,26.3,64,26.3S15.69,44.78,13.89,70.76 c-1.05,15.14,5.05,28.01,17.09,36.21c0,0,12.21,9.88,33.02,10.14c20.81-0.26,33.02-10.14,33.02-10.14 C109.05,98.77,115.16,85.9,114.11,70.76z" fill="#FFC022"/>
      <path d="M54.12,45.02c1.13,0.96,3.42,0.82,4.75-0.72c1.61-1.87,3.29-8.17,2.24-17.91 c-4.67,0.17-9.09,0.84-13.21,1.97C51.23,33.82,52.03,43.24,54.12,45.02z" fill="#FF7043" opacity="0.47"/>
      <path d="M73.88,45.02c-1.13,0.96-3.42,0.82-4.75-0.72c-1.61-1.87-3.29-8.17-2.24-17.91 c4.67,0.17,9.09,0.84,13.21,1.97C76.77,33.82,75.97,43.24,73.88,45.02z" fill="#FF7043" opacity="0.47"/>
      <path d="M55.96,74.54c-0.05-2.86,4.06-4.24,7.95-4.3s8.07,1.2,8.12,4.06c0.05,2.86-4.86,6.64-7.95,6.64 C61,80.94,56.01,77.4,55.96,74.54z"/>
      <g>
        <g>
          <path d="M4.12,74.76 c0,0,6.65-5.17,17.94-5.07" fill="none" stroke="#9E9E9E" stroke-linecap="round" stroke-miterlimit="10" stroke-width="3"/>
          <path d="M5.58,89.09 c0,0,4.63-10.06,17.75-12.32" fill="none" stroke="#9E9E9E" stroke-linecap="round" stroke-miterlimit="10" stroke-width="3"/>
          <path d="M15.04,98.29 c0,0,3.31-10.47,10.24-14.73" fill="none" stroke="#9E9E9E" stroke-linecap="round" stroke-miterlimit="10" stroke-width="3"/>
        </g>
        <g>
          <path d="M123.88,74.76 c0,0-6.65-5.17-17.94-5.07" fill="none" stroke="#9E9E9E" stroke-linecap="round" stroke-miterlimit="10" stroke-width="3"/>
          <path d="M122.42,89.09 c0,0-4.63-10.06-17.75-12.32" fill="none" stroke="#9E9E9E" stroke-linecap="round" stroke-miterlimit="10" stroke-width="3"/>
          <path d="M112.96,98.29 c0,0-3.31-10.47-10.24-14.73" fill="none" stroke="#9E9E9E" stroke-linecap="round" stroke-miterlimit="10" stroke-width="3"/>
        </g>
      </g>
      <g>
        <path d="M33.78,61.77c0.33-1.63,1.45-3.65,3.63-4.37c3.75-1.25,6.53-2.5,7.94-3.18c0.58-0.28,1.26,0.02,1.45,0.63 c0.36,1.17,0.88,3.13,1.13,5.49c0.57,5.25-3.06,8.44-6.99,8.68C36.34,69.3,33.06,65.37,33.78,61.77z"/>
        <path d="M94.22,61.77c-0.33-1.63-1.45-3.65-3.63-4.37c-3.75-1.25-6.53-2.5-7.94-3.18c-0.58-0.28-1.26,0.02-1.45,0.63 c-0.36,1.17-0.88,3.13-1.13,5.49c-0.57,5.25,3.06,8.44,6.99,8.68C91.66,69.3,94.94,65.37,94.22,61.77z"/>
      </g>
      <path d="M65.98,83.98v-4.45h-4v4.44c0,2.41-1.29,4.59-3.31,5.91c-4.03,2.63-6.07,4.8-7.95,7.01c-1.18,1.38-0.67,3.51,1.01,4.2h0 c1.23,0.51,2.65,0.05,3.32-1.11c1.76-3.05,5.07-7.3,8.94-7.3c3.76,0,7,4.03,8.79,7.06c0.74,1.24,2.32,1.67,3.58,0.98l0.18-0.1 c1.52-0.84,1.85-2.88,0.67-4.16c-1.85-2.01-4.71-4.39-7.9-6.58C67.32,88.52,65.98,86.39,65.98,83.98z"/>
      <g>
        <path d="M34.78,73.43c0.66-1.34,2.53-1.33,3.18,0.01c2.21,4.59,6.11,13.13,7.45,19.02 c2.01,8.81-2.13,17.11-9.19,16.95c-8.86-0.19-12.26-10.61-8.85-19.71C29.04,85.27,32.68,77.71,34.78,73.43z" fill="#28B3F2"/>
        <path d="M40.15,107.38c-8.86,0.59-12.97-9.19-10.19-18.3c1.35-4.43,4.47-12.07,6.27-16.39 c0.04-0.1,0.1-0.17,0.15-0.26c-0.63,0-1.27,0.33-1.6,1c-2.1,4.28-5.74,11.84-7.4,16.27c-3.41,9.1-0.01,19.52,8.85,19.71 c2.39,0.05,4.44-0.88,6.03-2.46C41.59,107.17,40.9,107.33,40.15,107.38z" fill="#0277BD"/>
        <path d="M39.27,85.81c2.04-0.03,3.51,4.44,3.77,9.56c0.31,6.08-4.78,7.54-6.05,1.85 C36.06,93.07,37.18,85.84,39.27,85.81z" fill="#81D4FA"/>
      </g>
    </g>
    <g>
      <g>
        <path d="M19.91,58.62C5.73,40.06,4.92,22.48,6.11,16.64c0.51-2.49,2.71-3.93,5.17-4.05 c5.59-0.26,20.9,4.06,34.85,16.48L19.91,58.62z" fill="#FFC022"/>
        <path d="M15.22,23.77c-0.65-0.2-1.3,0.3-1.29,0.97c0.06,5.09,0.64,11.37,6.85,20.03 c0.95,1.33,2.08,3.09,4.77,0.13c1.49-1.64,5.92-6.36,5.92-6.36c1.19-1.07,3.61-2.94,1.86-4.58 C33.25,33.89,26.71,27.3,15.22,23.77z" fill="#FFD1D1"/>
      </g>
      <g>
        <path d="M108.09,58.62c14.18-18.56,14.99-36.15,13.8-41.98c-0.51-2.49-2.71-3.93-5.17-4.05 c-5.59-0.26-20.9,4.06-34.85,16.48L108.09,58.62z" fill="#FFC022"/>
        <path d="M112.78,23.77c0.65-0.2,1.3,0.3,1.29,0.97c-0.06,5.09-0.64,11.37-6.85,20.03 c-0.95,1.33-2.08,3.09-4.77,0.13c-1.49-1.64-5.92-6.36-5.92-6.36c-1.19-1.07-3.61-2.94-1.86-4.58 C94.75,33.89,101.29,27.3,112.78,23.77z" fill="#FFD1D1"/>
      </g>
    </g>
  </g>
</svg>
